X:1
T:A diófa árnyékában
C:Hungarian folk song
Z:Public Domain
L:1/4
M:4/4
K:C
V:1 treble nm="Voice"
%%MIDI program 52
V:1
 E F G G | E F G G | c c G G | A A F2 | E E E z | G G c c | c G G G | E F G G | F E D2 | C C C z |] %10
w: A di- ó- fa|ár- nyé- ká- ban|ket- ten fe- küd-|tünk egy ágy-|ban- ban- ban.|Any- nyi- ra es-|tünk egy- más- tól,|mint a ci- pőm|a sar- ká-|tól- tól- tól.|

